X: 10
T: No_109_I_am_Thinking_of_Her.krn
%%abc-version 2.0
%%abcx-abcm2ps-target-version 5.9.1 (29 Sep 2008)
%%abc-creator hum2abc beta
%%abcx-conversion-date 2020/08/10 18:54:57
%%humdrum-veritas 338465244
%%humdrum-veritas-data 129789998
%%linebreak <none>
%%barnumbers 0
L: 1/8
M: 3/4
K: Gb clef=bass
z/ E/G2 [I:setbarnb 1]| 
E4E2 | 
B,4E2 ||  
[M:2/4]D4 ||  
[M:3/4]E4B,2 | 
A,4-A,3/G,/ | 
A,4-A,G,/G,/ | 
E,6 | 
E,4A,2 | 
G,4A,2 | 
A,6 | 
A,4E2 ||  
[M:2/4]D4 ||  
[M:3/4]E4B,2 | 
A,4-A,3/G,/ | 
A,4-A,G,/G,/ | 
E,6 | 
E,2>>z2z2 | 


